web/themes/custom/dewert_theme/images/icons/icn-materiaux.svg

<?xml version="1.0" encoding="UTF-8"?>
<svg width="47px" height="47px" viewBox="0 0 47 47" version="1.1" xmlns="http://www.w3.org/2000/svg" xmlns:xlink="http://www.w3.org/1999/xlink">
    <!-- Generator: Sketch 49.1 (51147) - http://www.bohemiancoding.com/sketch -->
    <title>icn-materiaux</title>
    <desc>Created with Sketch.</desc>
    <defs></defs>
    <g id="icn-materiaux" stroke="none" stroke-width="1" fill="none" fill-rule="evenodd">
        <path d="M23.5001243,2.29330777 C11.806653,2.29330777 2.29355639,11.8069016 2.29355639,23.5001243 C2.29355639,35.193347 11.806653,44.7066922 23.5001243,44.7066922 C35.193347,44.7066922 44.7066922,35.193347 44.7066922,23.5001243 C44.7066922,11.8069016 35.193347,2.29330777 23.5001243,2.29330777 M23.5001243,46 C11.0936183,46 1,35.9066304 1,23.5001243 C1,11.0933696 11.0936183,1 23.5001243,1 C35.9066304,1 46,11.0933696 46,23.5001243 C46,35.9066304 35.9066304,46 23.5001243,46" id="Fill-1" stroke="#82BE43" fill="#82BE43"></path>
        <path d="M23.5,6.24757905 C13.9870299,6.24757905 6.24757905,13.9870299 6.24757905,23.5002398 C6.24757905,26.2388221 7.59372691,28.5864867 8.89526699,30.8562076 C9.03196827,31.0948353 9.16866954,31.3332231 9.30369204,31.571611 C12.656231,37.4919755 17.6978701,40.7521811 23.5,40.7521811 C29.9184848,40.7521811 35.5095671,37.0945825 38.4563191,30.9682067 C39.4791804,28.8419023 40.752421,26.1951736 40.752421,23.5002398 C40.752421,18.2396388 38.1260776,13.9179598 32.7234991,10.2879412 C32.5335563,10.1598737 32.342894,10.0310867 32.1510326,9.90134044 C29.4956702,8.10503766 26.7496532,6.24757905 23.5,6.24757905 M23.5,42 C17.2287688,42 11.8014882,38.5148369 8.21799608,32.1865269 C8.08417273,31.9500577 7.94843075,31.7138283 7.81292861,31.4768794 C6.43008725,29.065181 5,26.5712221 5,23.5002398 C5,13.2989668 13.2989668,5 23.5,5 C27.132177,5 30.1698233,7.05459625 32.8501277,8.86792673 C33.0410298,8.99695355 33.2307328,9.12526089 33.4197164,9.25212927 C39.1933069,13.1318075 42,17.7923618 42,23.5002398 C42,26.4796082 40.6586487,29.2683143 39.580867,31.509256 C36.4211488,38.0783521 30.4096501,42 23.5,42" id="Fill-12" stroke="#82BE43" fill="#82BE43"></path>
        <path d="M19.4222205,15.405846 C18.8211389,15.405846 18.5839794,15.5274589 18.5423724,15.5915084 C18.2697083,16.0133703 17.8633472,16.4695541 17.4331314,16.9522225 C16.7202658,17.7521656 15.8329285,18.7477704 15.7832775,19.4239386 C15.7549848,19.8109381 15.6803697,20.1579404 15.6079736,20.493322 C15.4113115,21.4086623 15.2412778,22.1991466 16.0645404,23.7198492 C16.6434317,24.7889624 16.9737908,25.8915867 17.239243,26.7780101 C17.440898,27.450665 17.7454608,28.4678899 17.9931608,28.548695 C18.6017317,28.746789 19.0760508,29.2091885 19.5348366,29.656454 C20.0454925,30.1545267 20.5278556,30.6250338 21.0851112,30.6515184 C21.6875797,30.6798947 22.3028077,30.9114999 22.8977869,31.135538 C23.4969269,31.3609274 24.1163155,31.5936135 24.6552641,31.5936135 C24.9989374,31.5936135 25.2840837,31.4992959 25.5525871,31.2963374 C25.9051366,31.0298699 26.2732193,30.7863737 26.6290974,30.5512552 C27.933891,29.6888841 29.1660112,28.8743475 29.8186854,26.8774625 C30.0796996,26.0791409 30.4242051,25.3624351 30.7282131,24.7300476 C31.5517532,23.0171965 32.04854,21.983216 30.8469316,20.4752151 C29.5637736,18.8650594 28.6719981,18.5834578 27.6393139,18.257535 C27.1633305,18.1072754 26.6712591,17.9524216 26.1248212,17.6724415 C25.4455186,17.3246284 24.9614912,16.9989759 24.5343266,16.7114288 C23.9166022,16.2957827 23.5082995,16.0212076 22.8412015,15.9163502 C22.5937789,15.8771638 22.2975375,15.8185193 21.9838212,15.7571723 C21.1885738,15.600697 20.1983287,15.405846 19.4222205,15.405846 M24.6552641,33 C23.8472573,33 23.0667111,32.7062371 22.3779776,32.4470664 C21.8670443,32.2549179 21.3846812,32.0733092 21.0152116,32.0554726 C19.9009777,32.0030439 19.1318041,31.2530972 18.5140797,30.6501671 C18.1579243,30.3031648 17.8214628,29.97508 17.5354845,29.8818434 C16.5715903,29.5678117 16.2551002,28.5105896 15.8540093,27.1717659 C15.5938272,26.303179 15.2989727,25.3191949 14.7880395,24.3760188 C13.7220697,22.4069696 13.973653,21.2367826 14.195834,20.2049641 C14.2610183,19.9020127 14.3223191,19.6158168 14.3439548,19.3236754 C14.4277234,18.179973 15.4457065,17.037892 16.3433069,16.0303961 C16.7363538,15.5896167 17.1074877,15.1728896 17.32107,14.8423725 C17.8658436,14 19.0372176,14 19.4222205,14 C20.342566,14 21.4110323,14.2099851 22.2695221,14.3786217 C22.5690921,14.4378067 22.8520193,14.4934784 23.071704,14.5283408 C24.0605622,14.6840054 24.6599796,15.08722 25.3542607,15.554484 C25.7478624,15.8190598 26.1938888,16.1193087 26.7963573,16.4279354 C27.2332301,16.6517033 27.6462484,16.7819643 28.0839534,16.9200626 C29.2378525,17.2840907 30.4311396,17.6608207 31.9869618,19.612844 C33.7297378,21.800256 32.8684742,23.5928312 32.0352258,25.3264917 C31.7359332,25.9491501 31.4263776,26.5928881 31.1939335,27.3039186 C30.3895326,29.7648247 28.8223379,30.800697 27.4396006,31.714686 C27.0864963,31.9479127 26.7533634,32.167897 26.4374281,32.4070692 C25.9173413,32.8005547 25.3176466,33 24.6552641,33" id="Fill-4" stroke="#82BE43" fill="#82BE43"></path>
        <path d="M22.216229,24.9752184 C22.5078726,24.9982937 22.769621,25.0970953 23.0014743,25.1848466 C23.1276982,25.2322974 23.2957752,25.2956734 23.3854606,25.3070485 C23.5113523,25.2131221 23.6422265,25.1256957 23.7750937,25.0376193 C24.2158808,24.7447898 24.50686,24.5514117 24.6765979,24.0310786 C24.781563,23.7080236 24.9134337,23.4324193 25.0296926,23.1896405 C25.3336263,22.5545805 25.3239935,22.5081048 25.1422975,22.2793012 C24.7985036,21.8460695 24.617472,21.7888686 24.2892899,21.684867 C24.1129087,21.6289661 23.8940099,21.55974 23.6531881,21.4355881 C23.3781529,21.2942108 23.1808451,21.1609588 23.0224009,21.0540321 C22.8104777,20.9107049 22.7606525,20.8811294 22.6659846,20.8661792 C22.5729775,20.8515539 22.4600403,20.8294536 22.3354773,20.8050782 C22.0963163,20.7576275 21.8020154,20.6997766 21.5880992,20.6916514 C21.4967529,20.8073532 21.3947773,20.922405 21.2891479,21.0413569 C21.1512981,21.1970343 20.8978539,21.4823888 20.8450392,21.6114158 C20.8307559,21.7768434 20.8001965,21.9182206 20.7732909,22.0433476 C20.7125041,22.328052 20.6872593,22.4460288 20.8792525,22.8022344 C21.1144275,23.2383912 21.24198,23.6660979 21.3442878,24.0093033 C21.3765081,24.1165549 21.4167004,24.2517571 21.4502494,24.3447085 C21.6847601,24.4691855 21.8621378,24.6427382 22.0109491,24.7886654 C22.0733967,24.8494414 22.1637464,24.9381678 22.216229,24.9752184 M23.4107054,27 L23.4103732,27 C23.008782,27 22.6593412,26.8680479 22.3789913,26.7620963 C22.2786766,26.7243957 22.1278723,26.6671948 22.074061,26.6603697 C21.4492529,26.6307942 21.0516477,26.2414381 20.7885706,25.9840341 C20.7397419,25.9359334 20.6689901,25.8663823 20.6297943,25.8351818 C20.0219267,25.6106033 19.8432203,25.0122689 19.6854404,24.4828357 C19.5964194,24.184481 19.5044088,23.8763762 19.3509472,23.5913467 C18.8679748,22.6956327 18.996856,22.0946984 19.081891,21.6968921 C19.1018211,21.6042657 19.1187617,21.5249645 19.1234121,21.4602884 C19.1679226,20.8525289 19.6017341,20.3640463 19.9843917,19.9324396 C20.0979932,19.8047126 20.2268744,19.6594353 20.2783604,19.579159 C20.4484305,19.3152549 20.8058433,19 21.5415956,19 C21.9305644,19 22.344778,19.0819013 22.6776104,19.1472273 C22.7772609,19.1673776 22.8676106,19.1855779 22.9420162,19.1972781 C23.4299711,19.2743043 23.7352336,19.4810075 24.0046219,19.6626854 C24.1371569,19.7523868 24.2743424,19.8450132 24.457367,19.9389397 C24.5673146,19.9958156 24.6795874,20.0312411 24.8217553,20.0760918 C25.3774725,20.2522446 25.8876827,20.4615478 26.5075083,21.242535 C27.3575264,22.3137518 26.9164072,23.2344912 26.5948685,23.9069267 C26.4918964,24.12208 26.394239,24.3258582 26.323155,24.5442616 C25.9720534,25.6219785 25.2628745,26.0929108 24.7453567,26.4367662 C24.6340804,26.5105424 24.5238006,26.5830185 24.4188355,26.6626447 C24.1242024,26.8868982 23.7850588,27 23.4107054,27" id="Fill-6" stroke="#82BE43" fill="#82BE43"></path>
        <path d="M23.1049188,10.1483444 C19.5552943,10.1483444 16.3020407,11.2247241 13.9447254,13.1792494 C11.4592616,15.2399558 10.1456297,18.0935982 10.1456297,21.4317881 C10.1456297,23.2565121 10.9101168,24.5403974 11.795266,26.0269316 C11.9811033,26.3390728 12.1735462,26.6618102 12.3629065,26.9971302 C12.5258444,27.285872 12.6885621,27.5788079 12.852601,27.8743929 C14.9921519,31.7280353 17.2043644,35.7130243 23.1049188,35.7130243 C23.5338419,35.7130243 23.9839028,35.7487859 24.4192113,35.783223 C24.8408682,35.816777 25.2770574,35.8516556 25.6780167,35.8516556 C26.0968112,35.8516556 26.4339166,35.8134658 26.7087092,35.7348786 C30.4983368,34.6532009 32.8492667,31.1838852 34.1540911,28.4637969 C34.9117524,26.8847682 35.8545905,24.9198675 35.8545905,22.9306843 C35.8545905,19.4350993 33.5175323,16.1613687 28.7102033,12.9222958 C28.2033343,12.5810155 27.7653836,12.2463576 27.3419652,11.9227373 C25.9942044,10.8924945 25.0205402,10.1483444 23.1049188,10.1483444 M25.6780167,37 C25.231699,37 24.7726104,36.9635762 24.3287147,36.9282561 C23.896709,36.893819 23.4887037,36.8615894 23.1049188,36.8615894 C16.5310345,36.8615894 14.0451303,32.3836645 11.8516337,28.4328918 C11.688916,28.1399558 11.5277396,27.8492274 11.3661228,27.5633554 C11.1831479,27.2392936 10.9944482,26.9220751 10.8116935,26.6156733 C9.88008493,25.0512141 9,23.5732892 9,21.4317881 C9,17.7403974 10.4574136,14.5803532 13.2148075,12.2944812 C15.7768962,10.1699779 19.2893092,9 23.1049188,9 C25.4074077,9 26.6256989,9.93134658 28.036433,11.0092715 C28.4466402,11.3227373 28.8707191,11.6467991 29.3491841,11.9690949 C34.4973617,15.4377483 37,19.0231788 37,22.9306843 C37,25.1816777 35.9944088,27.2777042 35.1863249,28.9618102 C33.7795541,31.893819 31.2214289,35.6408389 27.0224747,36.8395143 C26.6439744,36.9474614 26.2042622,37 25.6780167,37" id="Fill-14" stroke="#82BE43" fill="#82BE43"></path>
    </g>
</svg>

<svg width="47" height="47" xmlns="http://www.w3.org/2000/svg"><g fill="#82BE43" fill-rule="evenodd" stroke="#82BE43"><path d="M23.5 2.293c-11.693 0-21.206 9.514-21.206 21.207 0 11.693 9.513 21.207 21.206 21.207S44.707 35.193 44.707 23.5c0-11.693-9.514-21.207-21.207-21.207M23.5 46C11.094 46 1 35.907 1 23.5S11.094 1 23.5 1C35.907 1 46 11.093 46 23.5S35.907 46 23.5 46"/><path d="M23.5 6.248c-9.513 0-17.252 7.739-17.252 17.252 0 2.739 1.346 5.086 2.647 7.356.137.239.274.477.409.716 3.352 5.92 8.394 9.18 14.196 9.18 6.418 0 12.01-3.657 14.956-9.784 1.023-2.126 2.296-4.773 2.296-7.468 0-5.26-2.626-9.582-8.029-13.212l-.572-.387C29.496 8.105 26.75 6.248 23.5 6.248M23.5 42c-6.271 0-11.699-3.485-15.282-9.813-.134-.237-.27-.473-.405-.71C6.43 29.065 5 26.57 5 23.5 5 13.3 13.299 5 23.5 5c3.632 0 6.67 2.055 9.35 3.868l.57.384C39.193 13.132 42 17.792 42 23.5c0 2.98-1.341 5.768-2.42 8.01C36.422 38.077 30.41 42 23.5 42"/><path d="M19.422 15.406c-.6 0-.838.121-.88.186-.272.421-.679.878-1.109 1.36-.713.8-1.6 1.796-1.65 2.472a7.549 7.549 0 0 1-.175 1.07c-.197.915-.367 1.705.457 3.226.578 1.069.909 2.172 1.174 3.058.202.673.506 1.69.754 1.77.609.199 1.083.661 1.542 1.108.51.499.993.969 1.55.996.603.028 1.218.26 1.813.484.599.225 1.218.458 1.757.458.344 0 .63-.095.898-.298.352-.266.72-.51 1.076-.745 1.305-.862 2.537-1.677 3.19-3.674.26-.798.605-1.515.91-2.147.823-1.713 1.32-2.747.118-4.255-1.283-1.61-2.175-1.892-3.208-2.217-.476-.15-.968-.306-1.514-.586a14.475 14.475 0 0 1-1.59-.96c-.618-.416-1.027-.69-1.694-.796a24.282 24.282 0 0 1-.857-.159c-.795-.156-1.786-.351-2.562-.351M24.655 33c-.808 0-1.588-.294-2.277-.553-.511-.192-.993-.374-1.363-.392-1.114-.052-1.883-.802-2.5-1.405-.357-.347-.694-.675-.98-.768-.963-.314-1.28-1.371-1.681-2.71-.26-.869-.555-1.853-1.066-2.796-1.066-1.969-.814-3.14-.592-4.171.065-.303.126-.59.148-.881.084-1.144 1.102-2.286 2-3.294.392-.44.763-.857.977-1.188C17.866 14 19.037 14 19.422 14c.92 0 1.989.21 2.848.379.3.059.582.114.802.15.989.155 1.588.558 2.282 1.025.394.265.84.565 1.442.874.437.224.85.354 1.288.492 1.154.364 2.347.74 3.903 2.693 1.743 2.187.881 3.98.048 5.713-.3.623-.609 1.267-.841 1.978-.804 2.46-2.372 3.497-3.754 4.41-.354.234-.687.454-1.003.693a2.89 2.89 0 0 1-1.782.593"/><path d="M22.216 24.975c.292.023.554.122.785.21.127.047.295.11.384.122.126-.094.257-.181.39-.27.44-.292.732-.486.902-1.006.105-.323.236-.599.353-.841.304-.635.294-.682.112-.91-.343-.434-.525-.491-.853-.595-.176-.056-.395-.125-.636-.25-.275-.14-.472-.274-.63-.381-.213-.143-.262-.173-.357-.188a9.726 9.726 0 0 1-.33-.06 5.43 5.43 0 0 0-.748-.114c-.091.115-.193.23-.299.35-.138.155-.391.44-.444.57-.014.165-.045.306-.072.431-.06.285-.086.403.106.76.235.435.363.863.465 1.206.033.108.073.243.106.336.235.124.412.298.56.444.063.06.154.15.206.186M23.411 27c-.402 0-.752-.132-1.032-.238a2.295 2.295 0 0 0-.305-.102c-.625-.03-1.022-.419-1.285-.676a2.74 2.74 0 0 0-.16-.149c-.607-.224-.786-.823-.944-1.352-.089-.299-.18-.607-.334-.892-.483-.895-.354-1.496-.27-1.894.02-.093.038-.172.042-.237.045-.607.479-1.096.861-1.528.114-.127.243-.273.294-.353.17-.264.528-.579 1.264-.579.389 0 .803.082 1.136.147.1.02.19.039.264.05.488.077.793.284 1.063.466.132.09.27.182.452.276.11.057.223.092.365.137.555.176 1.066.386 1.686 1.167.85 1.07.408 1.991.087 2.664-.103.215-.2.419-.272.637-.35 1.078-1.06 1.549-1.578 1.893-.11.074-.221.146-.326.226A1.628 1.628 0 0 1 23.41 27"/><path d="M23.105 10.148c-3.55 0-6.803 1.077-9.16 3.031-2.486 2.061-3.8 4.915-3.8 8.253 0 1.825.765 3.108 1.65 4.595.186.312.379.635.568.97.163.289.326.582.49.877 2.14 3.854 4.351 7.839 10.252 7.839.429 0 .879.036 1.314.07.422.034.858.069 1.259.069.419 0 .756-.039 1.03-.117 3.79-1.082 6.141-4.551 7.446-7.271.758-1.58 1.7-3.544 1.7-5.533 0-3.496-2.336-6.77-7.144-10.009a27.344 27.344 0 0 1-1.368-1c-1.348-1.03-2.321-1.774-4.237-1.774M25.678 37c-.446 0-.905-.036-1.35-.072-.431-.034-.84-.066-1.223-.066-6.574 0-9.06-4.478-11.253-8.43-.163-.292-.324-.583-.486-.869a46.038 46.038 0 0 0-.554-.947C9.88 25.05 9 23.573 9 21.432c0-3.692 1.457-6.852 4.215-9.138C15.777 10.17 19.289 9 23.105 9c2.302 0 3.52.931 4.931 2.01.41.313.835.637 1.313.96C34.497 15.437 37 19.022 37 22.93c0 2.252-1.006 4.348-1.814 6.032-1.406 2.932-3.965 6.679-8.164 7.878-.378.107-.818.16-1.344.16"/></g></svg>
